assets/icons/external-link.svg

<?xml version="1.0" encoding="UTF-8" standalone="no"?>
<svg viewBox="0 0 24 24" version="1.1" id="svg4" sodipodi:docname="external-link.svg" width="24" height="24" inkscape:version="1.1.2 (08b2f3d93c, 2022-04-05)"
   xmlns:inkscape="http://www.inkscape.org/namespaces/inkscape"
   xmlns:sodipodi="http://sodipodi.sourceforge.net/DTD/sodipodi-0.dtd"
   xmlns="http://www.w3.org/2000/svg"
   xmlns:svg="http://www.w3.org/2000/svg">
   <defs id="defs8" />
   <sodipodi:namedview id="namedview6" pagecolor="#ffffff" bordercolor="#666666" borderopacity="1.0" inkscape:pageshadow="2" inkscape:pageopacity="0.0" inkscape:pagecheckerboard="0" showgrid="true" inkscape:snap-page="true" inkscape:zoom="24.09375" inkscape:cx="15.418936" inkscape:cy="9.5460441" inkscape:window-width="1920" inkscape:window-height="1043" inkscape:window-x="0" inkscape:window-y="0" inkscape:window-maximized="1" inkscape:current-layer="svg4">
      <inkscape:grid type="xygrid" id="grid849" />
      <inkscape:grid type="xygrid" id="grid851" dotted="true" spacingx="0.5" spacingy="0.5" empspacing="10" />
   </sodipodi:namedview>
   <path id="path2" style="font-variant-ligatures:none;font-variant-position:normal;font-variant-caps:normal;font-variant-numeric:normal;font-variant-alternates:normal;font-feature-settings:normal;text-indent:0;text-decoration-line:none;text-decoration-style:solid;text-decoration-color:#000000;text-transform:none;shape-padding:0;isolation:auto;mix-blend-mode:normal;fill:#808080;stroke-width:1.25" d="m 21,2 c -1.046513,0.2351125 -2.104328,0.5089969 -3.173828,0.8183594 -1.076575,0.316425 -2.107438,0.6564343 -3.085938,1.0214844 l 1.855469,1.8574218 -4.949219,4.9492184 0.707032,0.707032 4.949218,-4.9492191 1.853516,1.8554687 c 0.369125,-1.0222 0.707072,-2.0550312 1.013672,-3.0976562 0.308475,-1.0703875 0.586128,-2.1244844 0.830078,-3.1621094 z" />
   <path style="color:#000000;fill:#808080;-inkscape-stroke:none" d="m 5,6 c -0.8611103,0 -1.6275009,0.2954697 -2.1660156,0.8339844 -0.5385147,0.5385147 -0.8339844,1.3049054 -0.8339844,2.1660156 v 9 c 0,0.86111 0.2954697,1.627501 0.8339844,2.166016 0.5385147,0.538514 1.3049053,0.833984 2.1660156,0.833984 h 10 c 0.86111,0 1.627501,-0.29547 2.166016,-0.833984 0.538514,-0.538515 0.833984,-1.304906 0.833984,-2.166016 v -6 h -1 v 6 c 0,0.638888 -0.204531,1.1225 -0.541016,1.458984 -0.336484,0.336485 -0.820096,0.541016 -1.458984,0.541016 h -10 c -0.6388883,0 -1.1225,-0.204531 -1.4589844,-0.541016 -0.3364844,-0.336484 -0.5410156,-0.820096 -0.5410156,-1.458984 v -9 c 0,-0.6388883 0.2045312,-1.1225 0.5410156,-1.4589844 0.3364844,-0.3364844 0.8200962,-0.5410156 1.4589844,-0.5410156 h 6 v -1 z" id="path1320" />
</svg>

<svg width="24" height="24" xmlns="http://www.w3.org/2000/svg"><path style="font-variant-ligatures:none;font-variant-position:normal;font-variant-caps:normal;font-variant-numeric:normal;font-variant-alternates:normal;font-feature-settings:normal;text-indent:0;text-decoration-line:none;text-decoration-style:solid;text-decoration-color:#000;text-transform:none;shape-padding:0;isolation:auto;mix-blend-mode:normal;fill:gray;stroke-width:1.25" d="M21 2a54.134 54.134 0 0 0-3.174.818A45.753 45.753 0 0 0 14.74 3.84l1.856 1.857-4.95 4.95.708.707 4.949-4.95 1.853 1.856a53.35 53.35 0 0 0 1.014-3.098c.308-1.07.586-2.124.83-3.162z"/><path style="color:#000;fill:gray;-inkscape-stroke:none" d="M5 6c-.861 0-1.628.295-2.166.834C2.295 7.372 2 8.139 2 9v9c0 .861.295 1.628.834 2.166C3.372 20.705 4.139 21 5 21h10c.861 0 1.628-.295 2.166-.834.539-.538.834-1.305.834-2.166v-6h-1v6c0 .639-.205 1.123-.541 1.459-.336.336-.82.541-1.459.541H5c-.639 0-1.123-.205-1.459-.541C3.205 19.123 3 18.639 3 18V9c0-.639.205-1.123.541-1.459C3.877 7.205 4.361 7 5 7h6V6z"/></svg>
